icon-themes/sifr_svg/cmd/lc_tablemodefix.svg

<svg viewBox="0 0 24 24" xmlns="http://www.w3.org/2000/svg"><path d="m2 2v10h20v-10zm2 2h5v3h-5zm6 0h4v3h-4zm5 0h5v3h-5zm-11 4h5v3h-5zm6 0h4v3h-4zm5 0h5v3h-5zm-13 5v10h2v-4h5v-2h-5v-4zm18 0v4h-6v2h6v4h2v-10z" fill="#555753"/></svg>

<svg viewBox="0 0 24 24" xmlns="http://www.w3.org/2000/svg">
  <path
     style="fill:#555753"
     d="M 2 2 L 2 12 L 22 12 L 22 2 L 2 2 z M 4 4 L 9 4 L 9 7 L 4 7 L 4 4 z M 10 4 L 14 4 L 14 7 L 10 7 L 10 4 z M 15 4 L 20 4 L 20 7 L 15 7 L 15 4 z M 4 8 L 9 8 L 9 11 L 4 11 L 4 8 z M 10 8 L 14 8 L 14 11 L 10 11 L 10 8 z M 15 8 L 20 8 L 20 11 L 15 11 L 15 8 z M 2 13 L 2 23 L 4 23 L 4 19 L 9 19 L 9 17 L 4 17 L 4 13 L 2 13 z M 20 13 L 20 17 L 14 17 L 14 19 L 20 19 L 20 23 L 22 23 L 22 13 L 20 13 z "
     />
</svg>
